X:203
T:Duchess of Gordon
R:Strathspey
C:Donald Dow
B:The Athole Collection
M:C
L:1/8
K:E
c|B<E B>G B<EE<e|B<E B>G F<A A>c|B<E B>e c>eB>c|B>GB>a g<ee:|
g|e>B GBe>c|B<E B>G F<f f>g|e>B GBE>g|e<c B>G B<e e>g|
e>BG>B E>Be>c|B>EB>G F>ag>f|gcB>G|B>ce>f gee||
